X:1
T:Hotchkiss, 74.74
T:Amelia Smith Hotchkiss, 1888
T:Hotchkiss, 74.74
T:Public Domain
C:Amelia Smith Hotchkiss, 1888
Z:Public Domain
%%score ( 1 2 ) ( 3 4 )
L:1/8
M:4/4
K:Bb
V:1 treble 
V:2 treble 
V:3 bass 
V:4 bass 
V:1
 [DF]2 | [DF]2 [Fd]2 [Fd]2 [Ec]2 | [DB]4 (F2 B2) | [^Fc]4 [GB]3 [EG] | [DF]6 [DF]2 | %5
 [DF]2 [_Af]2 [Gf]2 [Ge]2 | [Gd]4 (c2 B2) | [FB]4 [Ed]3 [Ec] | [DB]6 |] %9
V:2
 x2 | x8 | x4 F4 | x8 | x8 | x8 | x4 G4 | x8 | x6 |] %9
V:3
 [B,,B,]2 | [B,,B,]2 [B,,F,]2 [B,,G,]2 [B,,A,]2 | [B,,B,]4 [D,B,]4 | [E,A,]4 [E,B,]3 [E,B,] | %4
 [B,,B,]6 B,2 | B,2 [B,D]2 [E,E]2 [E,B,]2 | [E,B,]4 ([E,C]2 [=E,^C]2) | [F,D]4 [F,A,]3 F, | %8
 [B,,F,]6 |] %9
V:4
 x2 | x8 | x8 | x8 | x6 B,2 | B,2 x6 | x8 | x7 F, | x6 |] %9

